modules/themify-icons/icons/archive.svg

<?xml version="1.0" encoding="utf-8"?>
<!-- Generated by IcoMoon.io -->
<!DOCTYPE svg PUBLIC "-//W3C//DTD SVG 1.1//EN" "http://www.w3.org/Graphics/SVG/1.1/DTD/svg11.dtd">
<svg version="1.1" xmlns="http://www.w3.org/2000/svg" xmlns:xlink="http://www.w3.org/1999/xlink" width="17" height="17" viewBox="0 0 17 17">
<g>
</g>
	<path d="M17 2h-17v4h1v11h15v-11h1v-4zM15 16h-13v-10h13v10zM16 5h-15v-2h15v2zM6 11h5.016c1.103 0 2-0.897 2-2s-0.897-2-2-2h-5.016c-1.103 0-2 0.897-2 2s0.897 2 2 2zM6 8h5.016c0.552 0 1 0.448 1 1s-0.448 1-1 1h-5.016c-0.552 0-1-0.448-1-1s0.448-1 1-1z" fill="#000000" />
</svg>

<svg xmlns="http://www.w3.org/2000/svg" width="17" height="17"><path d="M17 2H0v4h1v11h15V6h1V2zm-2 14H2V6h13v10zm1-11H1V3h15v2zM6 11h5.016c1.103 0 2-.897 2-2s-.897-2-2-2H6c-1.103 0-2 .897-2 2s.897 2 2 2zm0-3h5.016a1 1 0 0 1 0 2H6a1 1 0 0 1 0-2z"/></svg>
